X:393
T:Reel 393
M:4/4
K:Emin
L:1/8
ga| (3gag eg  (3dfd |B>d (3ddd e2e2| (3gag eg fded| (3gfg fd edBA| (3GFG BG dGBG| (3GAG gd efg2| (3gag  (3agf gedB|BABc defg| (3gag ef edBe|d2BA Bdcd| (3gag eg  (3gfg af|gfed edBA| (3GcG BA GAGB|dgef e2ef| (3gfe  (3ded efgf|edBd e2|
